X: 4
T: Over The Moor To Peggy
Z: Dr. Dow
S: https://thesession.org/tunes/2689#setting15924
R: reel
M: 4/4
L: 1/8
K: Gmaj
d2BG dG~G2|dGBG ABce|d2BG DGBd|cBAB c2Bc|d2BG DG~G2|DGBG ABce|d2BG DGBd|cBAB c2 (3ABc|||:dg~g2 dfec|dg~g2 ABcA|dg~g2 defd|cBAB c2Bc:|d2BG DG~G2|DGBG ABce|d2BG DGBd|cBAB ~c3e|d2BG DGBG|DGBG ABce|d2BG DGBd|cBAB c2 (3ABc||d2BG DG~G2|DGBG ~c3e|d2BG DGBd|cBAB cege|d2BG DG~G2|DGBG ~c3e|d2BG DGBG|AF~F2 ABcA||G
